X: 7830
T: Comin' Thro' The Rye
R: strathspey
M: 4/4
K: Dmajor
M:2/4
A>A A<f|e>d e<f|A>A B>A|d4|
A>A a<f|e>d e<f|a>f d>f|e3 f|
a>f d>f|e>d e>f|a>f d>f|e3 d|
A>A A>f|e>d e>f|A>A B>A|d4||

